public/images/tel.svg

<svg width="18px" height="18px" viewBox="0 0 18 18" version="1.1" xmlns="http://www.w3.org/2000/svg" xmlns:xlink="http://www.w3.org/1999/xlink">
    <g id="Page-1" stroke="none" stroke-width="1" fill="none" fill-rule="evenodd">
        <g id="Benediktinky_sk_kontakt" transform="translate(-532.000000, -309.000000)" fill="#FFFFFF">
            <g id="phone-call" transform="translate(532.000000, 309.000000)">
                <path d="M18,7.82608696 L16.4347826,7.82608696 C16.430901,4.36991328 13.6300867,1.56909904 10.173913,1.56521739 L10.173913,0 C14.4941748,0.00474446383 17.9952555,3.50582523 18,7.82608696 Z" id="Path"></path>
                <path d="M14.8695652,7.82608696 L13.3043478,7.82608696 C13.3043478,6.09719557 11.9028044,4.69565217 10.173913,4.69565217 L10.173913,3.13043478 C12.7661772,3.13302317 14.8669768,5.23382277 14.8695652,7.82608696 Z" id="Path"></path>
                <path d="M11.3650435,11.3251304 L9.53843478,13.1251304 L4.87486957,8.46156522 L6.67486957,6.63495652 C6.89751007,6.40847642 6.96120513,6.0699032 6.83608696,5.778 L4.96173913,1.40321739 C4.80859655,1.0466508 4.41728816,0.856158551 4.04217391,0.955565217 L0.598695652,1.86495652 C0.24432912,1.95664554 0.000852049132,2.28171506 0.0125217391,2.64756522 C0.231525491,6.64973879 1.89558672,10.4364236 4.69565217,13.3043478 C7.56449257,16.1048182 11.3523995,17.7686496 15.3555652,17.9866957 C15.7214154,17.9983653 16.0464849,17.7548883 16.1381739,17.4005217 L17.0475652,13.9570435 C17.1469719,13.5819292 16.9564796,13.1906208 16.599913,13.0374783 L12.2251304,11.1631304 C11.9322123,11.0367919 11.5919281,11.1008855 11.3650435,11.3251304 Z" id="Path"></path>
            </g>
        </g>
    </g>
</svg>

<svg width="18" height="18" xmlns="http://www.w3.org/2000/svg"><g fill="#FFF" fill-rule="evenodd"><path d="M18 7.826h-1.565a6.268 6.268 0 00-6.261-6.26V0A7.835 7.835 0 0118 7.826z"/><path d="M14.87 7.826h-1.566a3.13 3.13 0 00-3.13-3.13V3.13a4.7 4.7 0 014.696 4.696zM11.365 11.325l-1.827 1.8-4.663-4.663 1.8-1.827a.783.783 0 00.161-.857L4.962 1.403a.783.783 0 00-.92-.447L.6 1.865a.783.783 0 00-.586.783 16.549 16.549 0 004.683 10.656 16.549 16.549 0 0010.66 4.683.783.783 0 00.782-.586l.91-3.444a.783.783 0 00-.448-.92l-4.375-1.874a.783.783 0 00-.86.162z"/></g></svg>
